X:1
T:Saved by Grace
T:Saved by Grace
T:George Coles Stebbins, 1894
T:Frances Jane (Fanny) Crosby, 1891
T:Public Domain Courtesy of the Cyber Hymnal™
T:Public Domain Courtesy of the Cyber Hymnal™
C:George Coles Stebbins, 1894
Z:Public Domain
Z:Courtesy of the Cyber Hymnal™
%%score ( 1 2 ) ( 3 4 )
L:1/8
Q:1/4=95
M:3/4
K:F
V:1 treble 
V:2 treble 
V:3 bass 
V:4 bass 
V:1
 [FA][FA] [FB] | [FA]3 [EG] C[CG] | [CF]3 [CF] [CE][CF] | [FB]3 [FA] [FG]>D | [CG]3 [FA] [FA][FB] | %5
w: 1.~Some day the|sil- ver cord will|break, And I no|more as now shall|sing; But oh, the|
w: 2.~Some day my|earth- ly house will|fall. I can- not|tell how soon ’twill|be; But this I|
w: 3.~Some day, when|fades the gold- en|sun Be- neath the|ros- y tint- ed|west, My bless- èd|
w: 4.~Some day: till|then I’ll watch and|wait, My lamp all|trimmed and burn- ing|bright, That when my|
 [FA]3 [EG] C[CG] | [CF]3 [FA] [EG][_EA] | [Dc][FB] [FA]3 [EG] | [CF]3 ||"^Refrain" [FA][FA] [Ac] | %10
w: joy when I shall|wake With- in the|pal- ace of the|King!||
w: know— my All in|All Has now a|place in Heav’n for|me.|And I shall|
w: Lord will say, “Well|done!” And I shall|en- ter in- to|rest.||
w: Sav- ior opens the|gate, My soul to|Him may take its|flight.||
 [Ac]3 [Ad] [FA][Ac] | [Bc]3 [Ac] [Ac][GB] | [GB][Ac] [Be]3 [Bd] | [Ac]3 [FA] [FA][Ac] | %14
w: ||||
w: see Him face to|face, And tell the|stor- y— Saved by|grace; And I shall|
w: ||||
w: ||||
 [Ac]3 [Ad] [FA][Fc] | [Ec]3 [Ec] [_Ec][EF] | [DF][DB] A3 [CG] | [CF]6 |] %18
w: ||||
w: see Him face to|face, And tell the|stor- y— Saved by|grace.|
w: ||||
w: ||||
V:2
 x3 | x4 C x | x6 | x11/2 D/ | x6 | x4 C x | x6 | x6 | x3 || x3 | x6 | x6 | x6 | x6 | x6 | x6 | %16
 x2 (CF E) x | x6 |] %18
V:3
 [F,C][F,C] [F,D] | [F,C]3 [C,B,] [E,B,][C,B,] | [F,A,]3 [F,A,] [G,B,][F,A,] | %3
 [B,,D]3 [F,C] [G,=B,]>[F,B,] | [E,B,]3 [F,C] [F,C][F,D] | [F,C]3 [C,B,] [E,B,][C,B,] | %6
 [F,A,]3 [F,C] [C,B,][F,C] | [B,,D][B,,_D] [C,C]3 [C,B,] | [F,,F,A,]3 || [F,C][F,C] [F,F] | %10
 F3 [F,F] [F,C][F,F] | E3 [F,C] [C,C][C,C] | [C,C][C,C] [C,C]3 [C,E] | [F,F]3 [F,C] [F,C][F,F] | %14
 F3 [F,F] [F,C][F,A,] | B,3 [G,B,] [F,A,][A,,C] | [B,,B,][B,,F,] (F,A, C)[C,B,] | [F,A,]6 |] %18
V:4
 x3 | x6 | x6 | x6 | x6 | x6 | x6 | x6 | x3 || x3 | (F,C, F,) x3 | (G,C, G,) x3 | x6 | x6 | %14
 (F,C, F,) x3 | (G,C, G,) x3 | x2 C,3 x | x6 |] %18

